!!!!SEGMENT: pl-cz--ii-16--009_szlagorski-walenty--talnce-mazur-3.krn
!!!cenid: 18xx:1073
!!!COM: Szlagórski, Walenty
!!!COM-rismID:
!!!CDT: 1801-1863/07/16
!!!CNT: Polish
!!!GTL: Tańce
!!!OTL: Mazur 3
!!!PDT:
!!!AGN: Secular; Mazurka
!!!SMS-siglum: PL-CZ
!!!SMS-shelfmark: II-16
!!!SMS-shelfwork: 009 G
!!!SMS-variant:
!!!SMS-altvar:
!!!NIFC-rismSourceID: 300001302
!!!NIFC-islandoraID: pl-cz:32636
!!!URL-pdf-islandora: https://repozytorium.nifc.pl/islandora/object/pl-cz%3A32636/datastream/PDF/view
!!!URL-scan:
!!!ONB-nifc: UWAGA: zbiór zawiera Walce nr 1-5, Galop, Mazury nr 1-4
!!!AIN: 1 bass 2 clars 2 cor 1 empty 1 flt 2 violn
!!!key:
**kern	**kern	**kern	**kern	**kern	**dynam	**kern	**kern	**kern	**kern
*group3	*group3	*group3	*group2	*group2	*	*group2	*group1	*group1	*group1
*part9	*part8	*part7	*part6	*part5	*part5	*part4	*part3	*part2	*part1
*staff9	*staff8	*staff7	*staff6	*staff5	*	*staff4	*staff3	*staff2	*staff1
*Ibass	*Ivioln	*Ivioln	*Iempty	*Icor	*	*Icor	*Iclars	*Iclars	*Iflt
*I"Basso	*I"Violino 2do	*I"Violino 1mo	*I"Clarino in D	*I"Corno 2do in D	*	*I"Corno 1mo in D	*I"Clarinetto 2do in A	*I"Clarinetto 1mo in A	*I"Flauto
*I'[Cb]	*I'[Vl 2]	*I'[Vl 1]	*I'[Clno in D]	*I'[Cor 2 in D]	*	*I'[Cor 1 in D]	*I'[Cl 2 in A]	*I'[Cl 1 in A]	*I'[Fl]
*clefF4	*clefG2	*clefG2	*clefG2	*clefG2	*	*clefG2	*clefG2	*clefG2	*clefG2
*	*	*	*ITrd-1c-2	*ITrd6c10	*	*ITrd6c10	*ITrd2c3	*	*
*k[f#c#]	*k[f#c#]	*k[f#c#]	*k[f#c#]	*k[f#c#]	*	*k[f#c#]	*	*k[f#c#]	*k[f#c#]
*D:	*D:	*D:	*D:	*D:	*	*D:	*	*D:	*D:
*M3/8	*M3/8	*M3/8	*M3/8	*M3/8	*	*M3/8	*	*M3/8	*M3/8
*kcancel	*kcancel	*kcancel	*kcancel	*kcancel	*	*kcancel	*kcancel	*kcancel	*kcancel
*>[A,A,B,B,C,C]	*>[A,A,B,B,C,C]	*>[A,A,B,B,C,C]	*>[A,A,B,B,C,C]	*>[A,A,B,B,C,C]	*	*>[A,A,B,B,C,C]	*>[A,A,B,B,C,C]	*>[A,A,B,B,C,C]	*>[A,A,B,B,C,C]
*	*	*	*tacet	*	*	*	*tacet	*tacet	*
=1	=1	=1	=1	=1	=1	=1	=1	=1	=1
*>A	*>A	*>A	*>A	*>A	*	*>A	*>A	*>A	*>A
*	*	*^	*	*	*	*	*	*	*
!	!	!LO:TX:a:t=Clari.:mod=	!	!LO:TX:a:t=proszę sobie według Cornów odegrać	!LO:TX:a:t=4:mod=	!	!LO:TX:a:t=4:mod=	!LO:TX:a:t=Tacet	!LO:TX:a:t=Tacet	!
4D\	8d/L 8f#	16aa/LL	8f#\L 8a	4.ryy	4.r	.	4.r	4.ryy	4.ryy	16aa\LL
.	.	16aa/JJ	.	.	.	.	.	.	.	16aa\JJ
.	8d/ 8fn	8gg#X/L	8g#X\	.	.	.	.	.	.	8gg#X\L
8r	8d/J 8f#X	8aa/J	8f#\J 8a	.	.	.	.	.	.	8aa\J
=2	=2	=2	=2	=2	=2	=2	=2	=2	=2	=2
4D\	8r	4bb/	4g\ 4b	4.ryy	4.r	.	4.r	4.ryy	4.ryy	4bb\
.	8d/L 8f#	.	.	.	.	.	.	.	.	.
8r	8d/J 8f#	8aa/	8f#\ 8a	.	.	.	.	.	.	8aa\
=3	=3	=3	=3	=3	=3	=3	=3	=3	=3	=3
*	*rep	*	*	*	*	*	*	*	*	*
4AA/	8r	16ddd/LL	8r	4.ryy	4.r	.	4.r	4.ryy	4.ryy	16.ddd\LL
.	.	16ddd/JJ	.	.	.	.	.	.	.	.
.	.	.	.	.	.	.	.	.	.	32ddd\JJk
.	8d/L 8f#	8ff#/L	8f#\L 8a	.	.	.	.	.	.	8ff#\L
8r	8d/J 8f#	8gg/J	8f#\J 8a	.	.	.	.	.	.	8gg\J
*	*Xrep	*	*	*	*	*	*	*	*	*
=4	=4	=4	=4	=4	=4	=4	=4	=4	=4	=4
4D\	4B/ 4d	4bb/	4g\ 4b	4.ryy	4.r	.	4.r	4.ryy	4.ryy	4bb\
8r	8A/ 8d	8aa/	8f#\ 8a	.	.	.	.	.	.	8aa\
*	*	*v	*v	*	*	*	*	*	*	*
=5	=5	=5	=5	=5	=5	=5	=5	=5	=5
*	*	*Xtuplet	*	*	*	*	*	*	*
!	!	!	!	!	!	!	!	!	!
!	!	!	!	!	!LO:DY:rj	!	!	!	!LO:TX:a:t=2
!	!	!	!	!	!LO:MO:null:mod=.	!	!	!	!
8D\L	8r	24aa\LL	4.ryy	8r	f	8r	4.ryy	4.ryy	4.r
.	.	24bb\	.	.	.	.	.	.	.
.	.	24aa\JJ	.	.	.	.	.	.	.
*	*tremolo	*	*	*tremolo	*	*	*	*	*
!	!	!	!	!	!	!LO:N:vis=4.	!	!	!
*	*	*	*	*	*	*tremolo	*	*	*
8D\	8g/L 8a	8.gg\L	.	8A/L	.	8e\L	.	.	.
8D\J	8g/J 8a	.	.	8A/J	.	8e\J	.	.	.
.	.	16ee\Jk	.	.	.	.	.	.	.
*	*Xtremolo	*	*	*Xtremolo	*	*Xtremolo	*	*	*
!	!	!LO:LB:g=original	!	!	!	!	!	!	!
=6	=6	=6	=6	=6	=6	=6	=6	=6	=6
8D\L	8r	16gg\LL	4.ryy	8r	.	8r	4.ryy	4.ryy	4.r
.	.	16ff#\JJ	.	.	.	.	.	.	.
*	*tremolo	*	*	*tremolo	*	*tremolo	*	*	*
8D\	8f#/L 8a	8.ff#\L	.	8F#/L	.	8d\L	.	.	.
8D\J	8f#/J 8a	.	.	8F#/J	.	8d\J	.	.	.
.	.	16a\Jk	.	.	.	.	.	.	.
*	*Xtremolo	*	*	*Xtremolo	*	*Xtremolo	*	*	*
=7	=7	=7	=7	=7	=7	=7	=7	=7	=7
*	*	*	*	*	*	*	*	*	*Xtuplet
!	!	!	!	!	!	!	!	!	!LO:TUP:a:problem=klamra łukowa
8A\L	8r	24a/LL	4.ryy	8r	.	8r	4.ryy	4.ryy	24aa\LL
.	.	24b/	.	.	.	.	.	.	24bb\
.	.	24a/JJ	.	.	.	.	.	.	24aa\JJ
*	*tremolo	*	*	*tremolo	*	*tremolo	*	*	*
8A\	8g/L 8a	8.g/L	.	8A/L	.	8e\L	.	.	8.gg\L
8A\J	8g/J 8a	.	.	8A/J	.	8e\J	.	.	.
.	.	16e/Jk	.	.	.	.	.	.	16ee\J
*	*Xtremolo	*	*	*Xtremolo	*	*Xtremolo	*	*	*
!LO:LB:g=original	!LO:LB:g=original	!	!	!	!	!	!	!	!LO:LB:g=original
=8	=8	=8	=8	=8	=8	=8	=8	=8	=8
8D\	8r	16.f#/LL	4.ryy	8r	.	8r	4.ryy	4.ryy	16.ff#\LL
.	.	32a/K	.	.	.	.	.	.	32aa\K
*	*tremolo	*	*	*tremolo	*	*tremolo	*	*	*
!	!	!	!	!	!	!	!	!	!LO:N:vis=16
4d\	8f#/L 8a	16.dd/	.	8F#/L	.	8d\L	.	.	16.ddd\
.	.	32ff#/JJk	.	.	.	.	.	.	32fff#\JJk
.	8f#/J 8a	8aa\	.	8F#/J	.	8d\J	.	.	8aaa\
*	*Xtremolo	*	*	*Xtremolo	*	*Xtremolo	*	*	*
=9	=9	=9	=9	=9	=9	=9	=9	=9	=9
!LO:TX:t=P:problem=brak tt.9-12:mod=	!	!	!	!	!	!	!	!	!LO:TX:a:t=4:mod=
4.ryy	8r	24aa\LL	4.ryy	8r	.	8r	4.ryy	4.ryy	4.r
.	.	24bb\	.	.	.	.	.	.	.
.	.	24aa\JJ	.	.	.	.	.	.	.
*	*tremolo	*	*	*tremolo	*	*tremolo	*	*	*
.	8g/L 8a	16.gg\LL	.	8A/L	.	8e\L	.	.	.
.	.	32ff#\K	.	.	.	.	.	.	.
.	8g/J 8a	16.gg\	.	8A/J	.	8e\J	.	.	.
.	.	32ee\JJk	.	.	.	.	.	.	.
*	*Xtremolo	*	*	*Xtremolo	*	*Xtremolo	*	*	*
=10	=10	=10	=10	=10	=10	=10	=10	=10	=10
4.ryy	8r	16.gg\LL	4.ryy	8r	.	8r	4.ryy	4.ryy	4.r
.	.	32ff#\JJk	.	.	.	.	.	.	.
*	*tremolo	*	*	*tremolo	*	*tremolo	*	*	*
.	.	8qgg/	.	.	.	.	.	.	.
.	8f#/L 8a	16.ff#\LL	.	8F#/L	.	8d\L	.	.	.
.	.	32ee\K	.	.	.	.	.	.	.
.	8f#/J 8a	16.ff#\	.	8F#/J	.	8d\J	.	.	.
.	.	32dd\JJk	.	.	.	.	.	.	.
*	*Xtremolo	*	*	*Xtremolo	*	*Xtremolo	*	*	*
=11	=11	=11	=11	=11	=11	=11	=11	=11	=11
4.ryy	8r	16.ff#\LL	4.ryy	8r	.	8r	4.ryy	4.ryy	4.r
.	.	32ee\JJk	.	.	.	.	.	.	.
*	*tremolo	*	*	*tremolo	*	*tremolo	*	*	*
.	.	8qff#/	.	.	.	.	.	.	.
.	8g/L 8a	16.ee\LL	.	8A/L	.	8e\L	.	.	.
.	.	32dd#X\K	.	.	.	.	.	.	.
.	8g/J 8a	16.ee\	.	8A/J	.	8e\J	.	.	.
.	.	32cc#\JJk	.	.	.	.	.	.	.
*	*Xtremolo	*	*	*Xtremolo	*	*Xtremolo	*	*	*
!	!	!LO:LB:g=original	!	!	!	!	!	!	!
=12	=12	=12	=12	=12	=12	=12	=12	=12	=12
4.ryy	8f#/ 8a	8dd\	4.ryy	8F#/	.	8d\	4.ryy	4.ryy	4.r
.	4f#/ 4a	4ddd\	.	4F#/	.	4d\	.	.	.
=13:|!|:	=13:|!|:	=13:|!|:	=13:|!|:	=13:|!|:	=13:|!|:	=13:|!|:	=13:|!|:	=13:|!|:	=13:|!|:
*>B	*>B	*>B	*>B	*>B	*	*>B	*>B	*>B	*>B
!	!	!	!	!LO:TX:a:t=4:mod=	!	!LO:TX:a:t=4:mod=	!	!	!
.	.	8qcc#/	.	.	.	.	.	.	8qccc#/
4AA/	8r	16.b\LL	4.ryy	4.r	.	4.r	4.ryy	4.ryy	16.bb\LL
.	.	32a#X\K	.	.	.	.	.	.	32aa#X\K
*	*tremolo	*	*	*	*	*	*	*	*
.	8d/L 8f#	16.b\	.	.	.	.	.	.	16.bb\
.	.	32cc#\K	.	.	.	.	.	.	32ccc#\K
8r	8d/J 8f#	16.dd\	.	.	.	.	.	.	16.ddd\
.	.	32ee\JJk	.	.	.	.	.	.	32eee\JJk
*	*Xtremolo	*	*	*	*	*	*	*	*
=14	=14	=14	=14	=14	=14	=14	=14	=14	=14
*	*rep	*	*	*	*	*	*	*	*
4D\	8r	4ff#\	4.ryy	4.r	.	4.r	4.ryy	4.ryy	4fff#\
*	*tremolo	*	*	*	*	*	*	*	*
.	8d/L 8f#	.	.	.	.	.	.	.	.
8r	8d/J 8f#	8ff#\	.	.	.	.	.	.	8fff#\
*	*Xrep	*	*	*	*	*	*	*	*
*	*Xtremolo	*	*	*	*	*	*	*	*
=15	=15	=15	=15	=15	=15	=15	=15	=15	=15
!	!	!LO:N:vis=16	!	!	!	!	!	!	!LO:N:vis=16
4AA/	8r	16.aa\LL	4.ryy	4.r	.	4.r	4.ryy	4.ryy	(>16aaa\LL
.	.	.	.	.	.	.	.	.	16ggg\JJ)
.	.	32gg\JJk	.	.	.	.	.	.	.
*	*tremolo	*	*	*	*	*	*	*	*
.	.	8qaa/	.	.	.	.	.	.	8qaaa/
.	8c#/L 8f#	16.gg\LL	.	.	.	.	.	.	(>16ggg\LL
.	.	.	.	.	.	.	.	.	16fff#\)
.	.	32ff#\K	.	.	.	.	.	.	.
8r	8c#/J 8f#	16.gg\	.	.	.	.	.	.	16ggg'>\
.	.	.	.	.	.	.	.	.	16ggg'>\JJ
.	.	32gg\JJk	.	.	.	.	.	.	.
*	*Xtremolo	*	*	*	*	*	*	*	*
!	!	!	!	!	!	!	!	!	!LO:LB:g=original
=16	=16	=16	=16	=16	=16	=16	=16	=16	=16
4D\	8r	4dd\ 4ff#	4.ryy	4.r	.	4.r	4.ryy	4.ryy	4fff#\
*	*tremolo	*	*	*	*	*	*	*	*
.	8d/L 8f#	.	.	.	.	.	.	.	.
8r	8d/J 8f#	8dd\ 8ff#	.	.	.	.	.	.	8fff#\
*	*Xtremolo	*	*	*	*	*	*	*	*
=17	=17	=17	=17	=17	=17	=17	=17	=17	=17
!	!	!	!	!	!	!	!	!	!LO:TX:a:t=8:mod=
8A\L	8r	16.a\LL	4.ryy	8r	.	8r	4.ryy	4.ryy	4.r
.	.	32gg\JJk	.	.	.	.	.	.	.
*	*tremolo	*	*	*	*	*	*	*	*
.	.	8qaa/	.	.	.	.	.	.	.
8A\	8A/L 8e	16.gg\LL	.	8A/L	.	8e\L	.	.	.
.	.	32ff#\K	.	.	.	.	.	.	.
8A\J	8A/J 8e	16.gg\	.	8A/J	.	8e\J	.	.	.
.	.	32bb\JJk	.	.	.	.	.	.	.
*	*Xtremolo	*	*	*	*	*	*	*	*
!	!	!LO:LB:g=original	!	!LO:LB:g=original	!	!	!	!	!
=18	=18	=18	=18	=18	=18	=18	=18	=18	=18
8D\L	8r	16.bb\LL	4.ryy	8r	.	8r	4.ryy	4.ryy	4.r
.	.	32aa\JJk	.	.	.	.	.	.	.
*	*tremolo	*	*	*tremolo	*	*tremolo	*	*	*
8D\	8d/L 8f#	8.aa\L	.	8F#/L	.	8d\L	.	.	.
8D\J	8d/J 8f#	.	.	8F#/J	.	8d\J	.	.	.
.	.	16gg\Jk	.	.	.	.	.	.	.
*	*Xtremolo	*	*	*Xtremolo	*	*Xtremolo	*	*	*
!	!LO:LB:g=original	!	!	!	!	!	!	!	!
=19	=19	=19	=19	=19	=19	=19	=19	=19	=19
8AA/L	8r	16.aa\LL	4.ryy	8r	.	8r	4.ryy	4.ryy	4.r
.	.	32gg\JJk	.	.	.	.	.	.	.
*	*tremolo	*	*	*tremolo	*	*tremolo	*	*	*
8AA/	8A/L 8e	8.gg\L	.	8A/L	.	8e\L	.	.	.
8AA/J	8A/J 8e	.	.	8A/J	.	8e\J	.	.	.
.	.	16ee\Jk	.	.	.	.	.	.	.
*	*Xtremolo	*	*	*Xtremolo	*	*Xtremolo	*	*	*
!	!	!	!	!	!	!LO:LB:g=original	!	!	!
=20	=20	=20	=20	=20	=20	=20	=20	=20	=20
8D\	8r	16.dd\LL	4.ryy	8r	.	8r	4.ryy	4.ryy	4.r
.	.	32ee\JJk	.	.	.	.	.	.	.
*	*tremolo	*	*	*tremolo	*	*tremolo	*	*	*
4d\	8d/L 8f#	8.ff#\L	.	8F#/L	.	8d\L	.	.	.
.	8d/J 8f#	.	.	8F#/J	.	8d\J	.	.	.
.	.	16dd\Jk	.	.	.	.	.	.	.
*	*Xtremolo	*	*	*Xtremolo	*	*Xtremolo	*	*	*
=21	=21	=21	=21	=21	=21	=21	=21	=21	=21
!LO:TX:t=P:problem=brak tt.21-24:mod=	!	!	!	!	!	!	!	!	!
4.ryy	8r	16.a\LL	4.ryy	8r	.	8r	4.ryy	4.ryy	4.r
.	.	32gg\JJk	.	.	.	.	.	.	.
*	*tremolo	*	*	*tremolo	*	*tremolo	*	*	*
.	.	8qaa/	.	.	.	.	.	.	.
.	8A/L 8e	16.gg\LL	.	8A/L	.	8e\L	.	.	.
.	.	32ff#\K	.	.	.	.	.	.	.
.	8A/J 8e	16.gg\	.	8A/J	.	8e\J	.	.	.
.	.	32bb\JJk	.	.	.	.	.	.	.
*	*Xtremolo	*	*	*Xtremolo	*	*Xtremolo	*	*	*
=22	=22	=22	=22	=22	=22	=22	=22	=22	=22
4.ryy	8r	16.bb\LL	4.ryy	8r	.	8r	4.ryy	4.ryy	4.r
.	.	32aa\JJk	.	.	.	.	.	.	.
*	*tremolo	*	*	*tremolo	*	*tremolo	*	*	*
.	8d/L 8f#	8.aa\L	.	8F#/L	.	8d\L	.	.	.
.	8d/J 8f#	.	.	8F#/J	.	8d\J	.	.	.
.	.	16ff#\Jk	.	.	.	.	.	.	.
*	*Xtremolo	*	*	*Xtremolo	*	*Xtremolo	*	*	*
=23	=23	=23	=23	=23	=23	=23	=23	=23	=23
4.ryy	8r	16.aa\LL	4.ryy	8r	.	8r	4.ryy	4.ryy	4.r
.	.	32gg\JJk	.	.	.	.	.	.	.
*	*tremolo	*	*	*tremolo	*	*tremolo	*	*	*
.	8A/L 8e	8.gg\L	.	8A/L	.	8e\L	.	.	.
*	*	*	*	*	*	*	*	*	*
.	8A/J 8e	.	.	8A/J	.	8e\J	.	.	.
.	.	16ee\Jk	.	.	.	.	.	.	.
*	*Xtremolo	*	*	*Xtremolo	*	*Xtremolo	*	*	*
!	!	!LO:LB:g=original	!	!	!	!	!	!	!
=24	=24	=24	=24	=24	=24	=24	=24	=24	=24
4.ryy	8d/ 8f#	16.ee\LL	4.ryy	8F#/	.	8d\	4.ryy	4.ryy	4.r
.	.	32dd\JJk	.	.	.	.	.	.	.
.	4d/ 4f#	4dd\	.	4F#/	.	4d\	.	.	.
=25:|!|:	=25:|!|:	=25:|!|:	=25:|!|:	=25:|!|:	=25:|!|:	=25:|!|:	=25:|!|:	=25:|!|:	=25:|!|:
*>C	*>C	*>C	*>C	*>C	*>C	*	*>C	*>C	*>C
*k[f#]	*	*k[f#]	*	*k[f#c#]	*	*k[f#c#]	*	*	*k[f#]
*	*	*cue	*	*clefG2	*	*clefG2	*	*	*
*	*	*	*	*M3/8	*	*M3/8	*	*	*
*	*	*^	*	*	*	*	*	*	*
!	!	!	!	!	!LO:TX:a:t=8:mod=	!	!LO:TX:t=P:problem=brak oznaczenia zmiany tonacji:mod=	!	!	!
!	!	!	!	!	!LO:TX:t=P:problem=brak oznaczenia zmiany tonacji:mod=	!	!LO:TX:a:t=8:mod=	!	!	!LO:TUP:a:problem=klamra łukowa
!	!	!LO:TX:a:t=Clarineti:mod=	!	!	!LO:TX:a:t=Trio	!	!LO:TX:a:t=Trio	!	!	!LO:TX:b:t=Solo
!	!	!LO:MO:mod=4.ryy	!	!	!	!	!	!	!	!
4G\	8r	24dd/LL	8g\L 8b	4.ryy	4.r	.	4.r	4.ryy	4.ryy	24ddd\LL
!	!	!LO:MO:null:mod=.	!	!	!	!	!	!	!	!
.	.	24ee/	.	.	.	.	.	.	.	24eee\
!	!	!LO:MO:null:mod=.	!	!	!	!	!	!	!	!
.	.	24dd/JJl	.	.	.	.	.	.	.	24ddd\JJ
!	!	!LO:MO:null:mod=.	!	!	!	!	!	!	!	!
.	8B/L 8d	8cc#X/L	8g\ 8b	.	.	.	.	.	.	8ccc#X\L
!	!	!LO:MO:null:mod=.	!	!	!	!	!	!	!	!
8r	8B/J 8d	8dd/J	8g\J 8b	.	.	.	.	.	.	8ddd\J
!LO:LB:g=original	!	!	!	!	!	!	!	!	!	!
=26	=26	=26	=26	=26	=26	=26	=26	=26	=26	=26
*	*rep	*	*	*	*	*	*	*	*	*
!	!	!LO:MO:mod=4.ryy	!	!	!	!	!	!	!	!
4G\	8r	16.dd/LL	8r	4.ryy	4.r	.	4.r	4.ryy	4.ryy	(>16ddd\LL
.	.	.	.	.	.	.	.	.	.	16ggg\JJ)
!	!	!LO:MO:null:mod=.	!	!	!	!	!	!	!	!
.	.	32gg/JJk	.	.	.	.	.	.	.	.
!	!	!LO:MO:null:mod=.	!	!	!	!	!	!	!	!
.	8B/L 8d	4gg/	8g\L 8b	.	.	.	.	.	.	4ggg^<\
8r	8B/J 8d	.	8g\J 8b	.	.	.	.	.	.	.
*	*Xrep	*	*	*	*	*	*	*	*	*
=27	=27	=27	=27	=27	=27	=27	=27	=27	=27	=27
*	*rep	*	*	*	*	*	*	*	*	*
!	!	!LO:MO:mod=4.ryy	!	!	!	!	!	!	!	!LO:TUP:a:problem=klamra łukowa
4D\	8r	24b/LL	8r	4.ryy	4.r	.	4.r	4.ryy	4.ryy	24bb\LL
!	!	!LO:MO:null:mod=.	!	!	!	!	!	!	!	!
.	.	24cc/	.	.	.	.	.	.	.	24ccc\
!	!	!LO:MO:null:mod=.	!	!	!	!	!	!	!	!
.	.	24b/JJ	.	.	.	.	.	.	.	24bb\JJ
!	!	!LO:MO:null:mod=.	!	!	!	!	!	!	!	!
.	8B/L 8d	8a#X/L	8g\L 8b	.	.	.	.	.	.	8aa#X\L
!	!	!LO:MO:null:mod=.	!	!	!	!	!	!	!	!
8r	8B/J 8d	8b/J	8g\J 8b	.	.	.	.	.	.	8bb\J
*	*Xrep	*	*	*	*	*	*	*	*	*
=28	=28	=28	=28	=28	=28	=28	=28	=28	=28	=28
*	*rep	*	*	*	*	*	*	*	*	*
!	!	!LO:MO:mod=4.ryy	!	!	!	!	!	!	!	!
4G\	8r	16.b/LL	8r	4.ryy	4.r	.	4.r	4.ryy	4.ryy	16bb\LL
.	.	.	.	.	.	.	.	.	.	16ddd\JJ
!	!	!LO:MO:null:mod=.	!	!	!	!	!	!	!	!
.	.	32dd/JJk	.	.	.	.	.	.	.	.
!	!	!LO:MO:null:mod=.	!	!	!	!	!	!	!	!
.	8B/L 8d	4dd/	8g\L 8b	.	.	.	.	.	.	4ddd^<\
8r	8B/J 8d	.	8g\J 8b	.	.	.	.	.	.	.
*	*Xrep	*	*	*	*	*	*	*	*	*
!	!LO:LB:g=original	!	!	!	!	!	!	!	!	!LO:LB:g=original
=29	=29	=29	=29	=29	=29	=29	=29	=29	=29	=29
8D\L	8r	8ryy	16.cc\LL	4.ryy	4.r	.	4.r	4.ryy	4.ryy	16.ccc\LL
!	!	!	!	!	!	!	!	!	!	!LO:TX:t=P:problem=niezidentyfikowany symbol nad nutą:mod=
.	.	.	32cc\JJk	.	.	.	.	.	.	32ccc\JJk
8D\	4cn/ 4d	4r	8.aa^<\L	.	.	.	.	.	.	8.aaa\L
8D\J	.	.	.	.	.	.	.	.	.	.
.	.	.	16cc\Jk	.	.	.	.	.	.	16ccc\Jk
=30	=30	=30	=30	=30	=30	=30	=30	=30	=30	=30
8G\L	8r	8ryy	16.b\LL	4.ryy	4.r	.	4.r	4.ryy	4.ryy	16bb\LL
!	!	!	!	!	!	!	!	!	!	!LO:TX:t=P:problem=niezidentyfikowany symbol nad nutą:mod=
.	.	.	.	.	.	.	.	.	.	16bb\JJ
.	.	.	32b\JJk	.	.	.	.	.	.	.
*	*	*	*	*	*	*	*	*	*	*
*	*tremolo	*	*	*	*	*	*	*	*	*
*	*	*	*	*	*	*	*	*	*	*
8G\	8B/L 8d	4r	8.gg^<\L	.	.	.	.	.	.	8ggg\L
8G\J	8B/J 8d	.	.	.	.	.	.	.	.	8bb\J
.	.	.	16b\Jk	.	.	.	.	.	.	.
*	*Xtremolo	*	*	*	*	*	*	*	*	*
*	*	*v	*v	*	*	*	*	*	*	*
!	!	!LO:LB:g=original	!LO:LB:g=original	!	!	!	!	!	!
=31	=31	=31	=31	=31	=31	=31	=31	=31	=31
*	*	*Xcue	*	*	*	*	*	*	*
8D\L	8r	16dd\LL	4.ryy	4.r	.	4.r	4.ryy	4.ryy	16.ddd\LL
.	.	16cc#X\	.	.	.	.	.	.	.
.	.	.	.	.	.	.	.	.	32ccc#X\K
*	*tremolo	*	*	*	*	*	*	*	*
8D\	8cn/L 8d	16ee\	.	.	.	.	.	.	16.eee\
.	.	16dd\	.	.	.	.	.	.	.
.	.	.	.	.	.	.	.	.	32ddd\K
8D\J	8c/J 8d	16ccn\	.	.	.	.	.	.	16.cccn\
.	.	16a\JJ	.	.	.	.	.	.	.
.	.	.	.	.	.	.	.	.	32aa\JJk
*	*Xtremolo	*	*	*	*	*	*	*	*
=32	=32	=32	=32	=32	=32	=32	=32	=32	=32
!	!	!	!	!LO:TX:a:t=Da Capo Mazur	!	!LO:TX:a:t=Da Capo Mazur	!	!	!
8G\	8B/ 8d	16.g\LL	4.ryy	4.r	.	4.r	4.ryy	4.ryy	16.gg\LL
.	.	32gg\JJk	.	.	.	.	.	.	32ggg\JJk
!	!	!	!	!	!	!	!	!	!LO:TX:a:t=Da Capo\nMazur
4G\	4B/ 4d	4gg\	.	.	.	.	.	.	4ggg\
=:|!	=:|!	=:|!	=:|!	=:|!	=:|!	=:|!	=:|!	=:|!	=:|!
*-	*-	*-	*-	*-	*-	*-	*-	*-	*-
!!!system-decoration: [(g1)][(g2)][(g3)]
!!!RDF**kern: > = above
!!!RDF**kern: < = below
!!!filter-modern: -sq | shed -e "s/^(X?)rep$/$1REP/I" | modori -m
!!!ENC: Krzyszttof Stępień
!!!END: 2020-10-05
!!!EED: Jędrzej Mróz
!!!ESR: 2021-11-02
!!!ENC-modern: Leszek Kubiak
!!!END-modern: 2022-07-07
